X: 2
T: Blue Stocking, The
M: 6/8
L: 1/8
R: jig
K: D Major
|: FG |\ 
A2 A AdA | F2 F FAF | D2 D E^DE | FGF EE/F/G |
ABA AdA | FGF F/G/AF | D2 D E^DE | FDD D :|
|: FG |\ 
AFd B2 d |AFd BGd | ABA AGF | GEE EE/F/G |
AFd BGd |A2 d BGd | ABA GFE | D3 D :|
